X:10
T:The Taxman Mazurka
R:mazurka
M:6/8
L:1/8
K:G %Transposed from F
Bc | dG Bd cB | AD FA cB | GA GF DB, | C4 B,C |
DB, DG BG | Bc cd cB |1 Ad cB cB | A4 :|2 Ad cA FA | G4 |:
FG | AD cD Bd | AD cD BD | AB AG FG | A4 G2 |
EG BG AB | cd cB AG | Ad cA FA | G4 :|
